src/standard/diagrams/bar-graph.svg

<svg xmlns="http://www.w3.org/2000/svg" viewBox="0 0 36 36">
  <path d="M32 23.38h-6.38V9.73a.62.62 0 1 0-1.24 0v13.65h-3.76v-8.93a.62.62 0 0 0-1.24 0v8.93h-3.76V13.27a.62.62 0 0 0-1.24 0v10.11h-3.76V18a.62.62 0 1 0-1.24 0v5.38H4a.62.62 0 0 0 0 1.24h28a.62.62 0 0 0 0-1.24Z"/>
  <path d="M5 21a.63.63 0 0 0 .63-.63V5.62h24.7v14.74a.63.63 0 0 0 1.25 0V5a.63.63 0 0 0-.58-.62H5a.62.62 0 0 0-.67.62v15.36A.63.63 0 0 0 5 21Zm26 5.83a.61.61 0 0 0-.63.62l-.05 2.93H5.58v-2.93a.63.63 0 0 0-.58-.62.62.62 0 0 0-.62.62V31a.62.62 0 0 0 .62.62h26a.63.63 0 0 0 .63-.61v-3.55a.62.62 0 0 0-.63-.63Z"/>
</svg>

<svg id="fd078f64-5a33-4b1b-9f45-21d7402432c5" data-name="Icon" xmlns="http://www.w3.org/2000/svg" viewBox="0 0 36 36">
  <g>
    <path d="M32,23.38H25.62V9.73a.62.62,0,1,0-1.24,0V23.38H20.62V14.45a.62.62,0,0,0-1.24,0v8.93H15.62V13.27a.62.62,0,0,0-1.24,0V23.38H10.62V18a.62.62,0,1,0-1.24,0v5.38H4a.62.62,0,0,0,0,1.24H32A.62.62,0,0,0,32,23.38Z"/>
    <path d="M5,21a.63.63,0,0,0,.63-.63V5.62H30.33V20.36a.63.63,0,0,0,1.25,0V5A.63.63,0,0,0,31,4.38H5A.62.62,0,0,0,4.33,5V20.36A.63.63,0,0,0,5,21Z"/>
    <path d="M31,26.83a.61.61,0,0,0-.63.62l-.05,2.93H5.58V27.45A.63.63,0,0,0,5,26.83a.62.62,0,0,0-.62.62V31a.62.62,0,0,0,.62.62H31a.63.63,0,0,0,.63-.61l0-3.55A.62.62,0,0,0,31,26.83Z"/>
  </g>
</svg>
